src/images/saved_icon.svg

<svg width="30" height="30" viewBox="0 0 30 30" fill="none" xmlns="http://www.w3.org/2000/svg">
<rect width="30" height="30" rx="15" fill="#313131"/>
<path d="M10.5 9.9C10.5 9.40294 10.9029 9 11.4 9H18.6C19.0971 9 19.5 9.40294 19.5 9.9V20.4789C19.5 20.5552 19.418 20.6034 19.3513 20.5662L16.2168 18.8198C15.4603 18.3984 14.5397 18.3984 13.7832 18.8198L10.6487 20.5662C10.582 20.6034 10.5 20.5552 10.5 20.4789V9.9Z" stroke="#424242"/>
</svg>

<svg xmlns="http://www.w3.org/2000/svg" width="30" height="30" fill="none"><rect width="30" height="30" fill="#313131" rx="15"/><path stroke="#424242" d="M10.5 9.9a.9.9 0 0 1 .9-.9h7.2a.9.9 0 0 1 .9.9v10.579a.1.1 0 0 1-.149.087l-3.134-1.746a2.5 2.5 0 0 0-2.434 0l-3.134 1.746a.1.1 0 0 1-.149-.087V9.9Z"/></svg>
